X:470
T: DA DROBEN AUF JENEM BERGE
N: E0419D
O: Europa, Mitteleuropa, Deutschland, Westfalen
R: Liebes - Lied, Abschied
M: 6/8
L: 1/16
K: E
B,2 | E3DE2E3DE2 | D4C2B,4
B,2 | E4E2F4F2 | G8z2
GA | B3cB2B2c2B2 | B4A2A4
A2 | G3AG2F2E2F2 | E8z2

@@@ Tune index: 4120
